common/src/main/resources/icons/vcs/mapBase.svg

<svg xmlns="http://www.w3.org/2000/svg" width="16" height="16" fill="#91B859" data-big="true" viewBox="0 0 24 24"><path d="m17.05 14.22 2.83 2.83L22 14.93V22h-7.07l2.12-2.12-2.83-2.83zM12.33 18H12c-4.42 0-8-1.79-8-4v3c0 2.21 3.58 4 8 4h1.14l1.08-1.08zm5.21-6.11 1.75 1.75c.44-.43.71-1.02.71-1.64V9c0 1.13-.94 2.16-2.46 2.88zM4 9v3c0 2.21 3.58 4 8 4h.45L16 12.47a15 15 0 0 1-4 .53c-4.42 0-8-1.79-8-4m8-6C7.58 3 4 4.79 4 7s3.58 4 8 4 8-1.79 8-4-3.58-4-8-4"/></svg>

<!--
  - The MIT License (MIT)
  -
  - Copyright (c) 2015-2024 Elior "Mallowigi" Boukhobza
  -
  - Permission is hereby granted, free of charge, to any person obtaining a copy
  - of this software and associated documentation files (the "Software"), to deal
  - in the Software without restriction, including without limitation the rights
  - to use, copy, modify, merge, publish, distribute, sublicense, and/or sell
  - copies of the Software, and to permit persons to whom the Software is
  - furnished to do so, subject to the following conditions:
  -
  - The above copyright notice and this permission notice shall be included in all
  - copies or substantial portions of the Software.
  -
  - THE SOFTWARE IS PROVIDED "AS IS", WITHOUT WARRANTY OF ANY KIND, EXPRESS OR
  - IMPLIED, INCLUDING BUT NOT LIMITED TO THE WARRANTIES OF MERCHANTABILITY,
  - FITNESS FOR A PARTICULAR PURPOSE AND NONINFRINGEMENT. IN NO EVENT SHALL THE
  - AUTHORS OR COPYRIGHT HOLDERS BE LIABLE FOR ANY CLAIM, DAMAGES OR OTHER
  - LIABILITY, WHETHER IN AN ACTION OF CONTRACT, TORT OR OTHERWISE, ARISING FROM,
  - OUT OF OR IN CONNECTION WITH THE SOFTWARE OR THE USE OR OTHER DEALINGS IN THE
  - SOFTWARE.
  -->


<svg data-big="true" xmlns="http://www.w3.org/2000/svg" version="1.1" width="16px" height="16px" fill="#91B859"
     viewBox="0 0 24 24">
  <path
    d="M17.05,14.22L19.88,17.05L22,14.93V22H14.93L17.05,19.88L14.22,17.05L17.05,14.22M12.33,18H12C7.58,18 4,16.21 4,14V17C4,19.21 7.58,21 12,21C12.39,21 12.77,21 13.14,21L14.22,19.92L12.33,18M17.54,11.89L19.29,13.64C19.73,13.21 20,12.62 20,12V9C20,10.13 19.06,11.16 17.54,11.88V11.89M4,9V12C4,14.21 7.58,16 12,16H12.45L16,12.47C14.7,12.83 13.35,13 12,13C7.58,13 4,11.21 4,9M12,3C7.58,3 4,4.79 4,7C4,9.21 7.58,11 12,11C16.42,11 20,9.21 20,7C20,4.79 16.42,3 12,3Z"/>
</svg>
